X: 2
T: Petronella
Z: ceolachan
S: https://thesession.org/tunes/1083#setting14316
R: reel
M: 4/4
L: 1/8
K: Dmaj
|: AG |F2 AF E2 AF | D2 [FC-][EC] D2 A2 | d2 cd e2 d2 | cdBc A2 dA |
F2 AF E2 AF | D2 [C2F2] D2 F/G/A | d2 cd e/f/e c2 | dAFA D2 :|
|: dA |F2 fd A2 af | g2 gf edcB | A2 ec A2 ge| f2 fd AdAF |
D2 fd A2 af | g3 f edcB | A2 ec Agec | d3 c d2 :|
